packages/kaspersky-hexa-ui-icons/src/iconsSVGs/64x42/FlagMk.svg

<svg xmlns="http://www.w3.org/2000/svg" width="64" height="42" fill="none" viewBox="0 0 64 42"><g clip-path="url(#a)"><rect width="64" height="42" fill="#fff" rx="5"/><path fill="#e81b26" d="M0 0h64v42H0z"/><circle cx="32" cy="21" r="7" fill="#ffe94f"/><path fill="#ffe94f" fill-rule="evenodd" d="M25.4858 28.3217a9.85 9.85 0 0 1-1.4488-1.6081L1.0988 43.172l5.6207 6.2424zm8.4365-16.9332L36.2 0h-8.4l2.2777 11.3886a9.84 9.84 0 0 1 1.9224-.1885c.6579 0 1.3006.0648 1.9222.1884m-3.8446 19.2231L27.8 42h8.4l-2.2777-11.3884a9.84 9.84 0 0 1-1.9222.1885 9.84 9.84 0 0 1-1.9224-.1885m8.4365-2.2898a9.86 9.86 0 0 0 1.4489-1.6082l22.938 16.4584-5.6207 6.2424zm3.2056-6.0618L64.4 25.2v-8.4l-22.6802 2.94a9.9 9.9 0 0 1 .0803 1.2601 9.9 9.9 0 0 1-.0803 1.2599m-1.7567-6.9735L62.9012-1.1718l-5.6207-6.2424-18.7662 21.0926a9.86 9.86 0 0 1 1.4488 1.6081M22.2803 22.26a9.9 9.9 0 0 1-.0802-1.2599c0-.4269.0273-.8475.0802-1.26L-.4 16.8v8.4zm3.2055-8.5815L6.7194-7.4142 1.0987-1.1718 24.037 15.2866a9.85 9.85 0 0 1 1.4488-1.6081" clip-rule="evenodd"/></g><defs><clipPath id="a"><rect width="64" height="42" fill="#fff" rx="5"/></clipPath></defs></svg>

<svg width="64" height="42" viewBox="0 0 64 42" fill="none" xmlns="http://www.w3.org/2000/svg">
<g clip-path="url(#clip0_37941_2304)">
<rect width="64" height="42" rx="5" fill="white"/>
<rect width="64" height="42" fill="#E81B26"/>
<circle cx="31.9999" cy="20.9999" r="7" fill="#FFE94F"/>
<path fill-rule="evenodd" clip-rule="evenodd" d="M25.4858 28.3217C24.946 27.8411 24.4597 27.3017 24.037 26.7136L1.0988 43.172L6.7195 49.4144L25.4858 28.3217ZM33.9223 11.3885L36.2 7.15256e-06H27.8L30.0777 11.3886C30.6993 11.2649 31.3421 11.2001 32.0001 11.2001C32.658 11.2001 33.3007 11.2649 33.9223 11.3885ZM30.0777 30.6116L27.8 42H36.2L33.9223 30.6116C33.3007 30.7353 32.658 30.8001 32.0001 30.8001C31.3421 30.8001 30.6993 30.7353 30.0777 30.6116ZM38.5142 28.3218C39.054 27.8412 39.5403 27.3018 39.9631 26.7136L62.9011 43.172L57.2804 49.4144L38.5142 28.3218ZM41.7198 22.26L64.4 25.2V16.8L41.7198 19.74C41.7728 20.1526 41.8001 20.5731 41.8001 21.0001C41.8001 21.427 41.7728 21.8475 41.7198 22.26ZM39.9631 15.2865L62.9012 -1.17183L57.2805 -7.41425L38.5143 13.6784C39.0541 14.159 39.5403 14.6984 39.9631 15.2865ZM22.2803 22.26C22.2274 21.8475 22.2001 21.427 22.2001 21.0001C22.2001 20.5732 22.2274 20.1526 22.2803 19.7401L-0.400024 16.8V25.2L22.2803 22.26ZM25.4858 13.6785L6.7194 -7.41425L1.0987 -1.17183L24.037 15.2866C24.4597 14.6985 24.946 14.1591 25.4858 13.6785Z" fill="#FFE94F"/>
</g>
<defs>
<clipPath id="clip0_37941_2304">
<rect width="64" height="42" rx="5" fill="white"/>
</clipPath>
</defs>
</svg>
